!!!COA: Josquin des Prez
!!!CDT: ~1450-1521/08/27
!!!OTL: Douleur me bat
!!!AGN: Chanson
!!!SCT: NJE 29.4
!!!SCA: New Josquin Edition 29.4
!!!voices: 5
**kern	**kern	**kern	**kern	**kern
*staff5	*staff4	*staff3	*staff2	*staff1
*Ivox	*Ivox	*Ivox	*Ivox	*Ivox
*I"Bassus	*I"Tenor	*I"Contratenor	*I"Quintus	*I"Superius
*I'B	*I'T	*I'Ct	*I'Q	*I'S
*clefF4	*clefGv2	*clefGv2	*clefGv2	*clefG2
*k[]	*k[]	*k[]	*k[]	*k[]
*M2/1	*M2/1	*M2/1	*M2/1	*M2/1
*met(C|)	*met(C|)	*met(C|)	*met(C|)	*met(C|)
=1-	=1-	=1-	=1-	=1-
!	!LO:TX:Z=6:t=Canon at the upper fifth (Tenor-->Quintus)	!	!	!
0r	0r	1e	0r	1r
.	.	2e\	.	1e
.	.	[2e\	.	.
=2	=2	=2	=2	=2
0r	0r	2e\]	0r	1f
.	.	4d\	.	.
.	.	4c\	.	.
.	.	1d	.	1f
=3	=3	=3	=3	=3
1r	0r	0e	0r	2.e/
.	.	.	.	4f/
1E	.	.	.	1g
=4	=4	=4	=4	=4
1F	0r	0r	0r	2r
.	.	.	.	2a/
1F	.	.	.	2a/
.	.	.	.	[2a/
=5	=5	=5	=5	=5
1E	1r	2r	0r	2a/]
.	.	2e\	.	4g#i/
.	.	.	.	4f#i/
1r	1E	2e\	.	1g#i
.	.	[2e\	.	.
=6	=6	=6	=6	=6
2r	1F	2e\]	0r	0a
2A\	.	4d\	.	.
.	.	4c\	.	.
2A\	1F	1d	.	.
[2A\	.	.	.	.
=7	=7	=7	=7	=7
2A\]	0E	0e	1r	0r
4G#i\	.	.	.	.
4F#i\	.	.	.	.
1G#i	.	.	1B	.
=8	=8	=8	=8	=8
1A	1r	1r	1c	2r
.	.	.	.	2e/
2r	1A	1e	1c	2e/
2AA/	.	.	.	2e/
=9	=9	=9	=9	=9
1E	1G	1e	0B	2.g/
.	.	.	.	4a/
1E	1G	1e	.	4b\
.	.	.	.	4cc\
.	.	.	.	[2b\
=10	=10	=10	=10	=10
1AA	1A	2c\	1r	4b\]
.	.	.	.	4a/
.	.	2A/	.	1a
1r	1E	1B	1e	.
.	.	.	.	2g#i/
=11	=11	=11	=11	=11
1D	0F	2A/	1d	0a
.	.	4D/	.	.
.	.	4E/	.	.
2D\	.	4F/	1d	.
.	.	4G/	.	.
2D\	.	4A/	.	.
.	.	4F/	.	.
=12	=12	=12	=12	=12
2C/	0E	2G/	1e	0r
2AA/	.	1A	.	.
1E	.	.	1B	.
.	.	2G#i/	.	.
=13	=13	=13	=13	=13
0AA	0r	0A	0c	2r
.	.	.	.	2a/
.	.	.	.	2a/
.	.	.	.	[2a/
=14	=14	=14	=14	=14
0r	0E	2r	0B	2a/]
.	.	2e\	.	4g#i/
.	.	.	.	4f#i/
.	.	2e\	.	1g#i
.	.	[2e\	.	.
=15	=15	=15	=15	=15
2r	1F	2e\]	0r	0a
2A\	.	4d\	.	.
.	.	4c\	.	.
2A\	1F	1d	.	.
[2A\	.	.	.	.
=16	=16	=16	=16	=16
2A\]	0E	0e	0B	0r
4G#i\	.	.	.	.
4F#i\	.	.	.	.
1G#i	.	.	.	.
=17	=17	=17	=17	=17
1A	1r	1r	1c	2r
.	.	.	.	2e/
2r	1A	1e	1c	2e/
2AA/	.	.	.	2e/
=18	=18	=18	=18	=18
1E	1G	1e	0B	2.g/
.	.	.	.	4a/
1E	1G	1e	.	4b\
.	.	.	.	4cc\
.	.	.	.	[2b\
=19	=19	=19	=19	=19
1AA	1A	2c\	1r	4b\]
.	.	.	.	4a/
.	.	2A/	.	1a
1r	1E	1B	1e	.
.	.	.	.	2g#i/
=20	=20	=20	=20	=20
1D	0F	1A	1d	0a
2D\	.	2r	1d	.
2D\	.	2A/	.	.
=21	=21	=21	=21	=21
2C/	0E	2c\	1e	0r
2AA/	.	2c\	.	.
2.E\	.	[1G	1B	.
4D\	.	.	.	.
=22	=22	=22	=22	=22
4C/	0r	2G/]	0c	1r
4BB/	.	.	.	.
1C	.	2G/	.	.
.	.	2.E/	.	[1g
4BB/	.	.	.	.
4AA/	.	4F/	.	.
=23	=23	=23	=23	=23
[0GG	1r	0G	0B	2g/]
.	.	.	.	2g/
.	[1G	.	.	1g
=24	=24	=24	=24	=24
0GG]	2G/]	1r	0r	0d
.	2G/	.	.	.
.	1G	[1d	.	.
=25	=25	=25	=25	=25
0r	1D	2d\]	1r	1r
.	.	2d\	.	.
.	2r	1d	[1d	1a
.	2D/	.	.	.
=26	=26	=26	=26	=26
1r	1.F	0D	2d\]	1a
.	.	.	2d\	.
[1D	.	.	1d	2a/
.	2F/	.	.	[2f/
=27	=27	=27	=27	=27
2D\]	1F	1r	1.A	4f/]
.	.	.	.	4e/
2D\	.	.	.	4d/
.	.	.	.	4c/
1D	1F	1A	.	1d
.	.	.	2A/	.
=28	=28	=28	=28	=28
1AA	0E	1A	1.c	0e
1AA	.	1A	.	.
.	.	.	2c\	.
=29	=29	=29	=29	=29
2C/	0r	1E	1c	1r
2C/	.	.	.	.
2C/	.	2.E/	1c	[1g
2C/	.	.	.	.
.	.	4F/	.	.
=30	=30	=30	=30	=30
[0GG	1r	0G	0B	2g/]
.	.	.	.	2g/
.	[1G	.	.	1g
=31	=31	=31	=31	=31
0GG]	2G/]	1r	0r	0d
.	2G/	.	.	.
.	1G	[1d	.	.
=32	=32	=32	=32	=32
0r	1D	2d\]	1r	1r
.	.	2d\	.	.
.	2r	1d	[1d	1a
.	2D/	.	.	.
=33	=33	=33	=33	=33
1r	1.F	0D	2d\]	1a
.	.	.	2d\	.
[1D	.	.	1d	2a/
.	2F/	.	.	[2f/
=34	=34	=34	=34	=34
2D\]	1F	1r	1A	4f/]
.	.	.	.	4e/
2D\	.	.	.	4d/
.	.	.	.	4c/
1D	1F	1A	2r	1d
.	.	.	2A/	.
=35	=35	=35	=35	=35
1AA	0E	1A	1.c	2e/
.	.	.	.	2.cc\
1AA	.	1A	.	.
.	.	.	.	4b\
.	.	.	2c\	2a/
=36	=36	=36	=36	=36
2C/	0r	1E	1c	4g/
.	.	.	.	4f/
2C/	.	.	.	4e/
.	.	.	.	4d/
2C/	.	2.E/	1c	1e
2C/	.	.	.	.
.	.	4F/	.	.
=37	=37	=37	=37	=37
1GG	1r	0G	0B	1d
2r	1G	.	.	2.dd\
[2GG/	.	.	.	.
.	.	.	.	4cc\
=38	=38	=38	=38	=38
2GG/]	1G	1.d	0r	4b-i\
.	.	.	.	4a/
2GG/	.	.	.	1b-i
1GG	[1B-	.	.	.
.	.	2d\	.	4a/
.	.	.	.	4g/
=39	=39	=39	=39	=39
0D	1B-]	1d	1r	1f
.	1A	1d	1d	2r
.	.	.	.	[2a/
=40	=40	=40	=40	=40
2r	1r	0r	1d	2a/]
1D	.	.	.	2a/
.	1D	.	[1f	1f
2D\	.	.	.	.
=41	=41	=41	=41	=41
1D	1.A	2r	1f]	2a/
.	.	2d\	.	2f/
1AA	.	2c\	1e	2cc\
.	2A/	2c\	.	2cc\
=42	=42	=42	=42	=42
0r	2G/	2d\	1r	2b\
.	2E/	2e\	.	2g/
.	1F	[1c	1A	1a
=43	=43	=43	=43	=43
2r	0E	2c\]	1.e	2g/
2C/	.	4B\	.	2e/
.	.	4A/	.	.
2C/	.	1G	.	2g/
2C/	.	.	2e\	2g/
=44	=44	=44	=44	=44
2D\	0r	0r	2d\	2f/
2GG/	.	.	2B\	2d/
2.C/	.	.	1c	1e
4BB/	.	.	.	.
=45	=45	=45	=45	=45
1GG	1r	1.d	0B	1d
2r	1G	.	.	2.dd\
[2GG/	.	2d\	.	.
.	.	.	.	4cc\
=46	=46	=46	=46	=46
2GG/]	1G	1d	0r	4b-i\
.	.	.	.	4a/
2GG/	.	.	.	1b-i
1GG	[1B-	1d	.	.
.	.	.	.	4a/
.	.	.	.	4g/
=47	=47	=47	=47	=47
0D	1B-]	0r	1r	1f
.	1A	.	1d	2r
.	.	.	.	[2a/
=48	=48	=48	=48	=48
2r	1r	0r	1d	2a/]
1D	.	.	.	2a/
.	1D	.	[1f	1f
2D\	.	.	.	.
=49	=49	=49	=49	=49
1D	1.A	2r	1f]	2a/
.	.	2d\	.	2f/
1AA	.	2c\	1e	2cc\
.	2A/	2c\	.	2cc\
=50	=50	=50	=50	=50
0r	2G/	2d\	1r	2b\
.	2E/	2e\	.	2g/
.	1F	[1c	1A	1a
=51	=51	=51	=51	=51
2r	0E	2c\]	1.e	2g/
2C/	.	4B\	.	2e/
.	.	4A/	.	.
2C/	.	1G	.	2g/
2C/	.	.	2e\	2g/
=52	=52	=52	=52	=52
2D\	0r	1r	2d\	2f/
2GG/	.	.	2B\	2d/
2.C/	.	2r	1c	1e
.	.	2c\	.	.
4BB/	.	.	.	.
=53	=53	=53	=53	=53
0GG	2r	2d\	0B	1d
.	2G/	2d\	.	.
.	2G/	2d\	.	1r
.	2G/	[2e\	.	.
=54	=54	=54	=54	=54
0r	2F/	4e\]	0r	1r
.	.	4d\	.	.
.	2D/	1d	.	.
.	1E	.	.	2r
.	.	2c#i\	.	2g/
=55	=55	=55	=55	=55
2r	0D	2d\	2r	2a/
2D\	.	2f\	2d\	2a/
2F\	.	2f\	2d\	2a/
2D\	.	2f\	2d\	[2b\
=56	=56	=56	=56	=56
2A\	0r	2e\	2c\	4b\]
.	.	.	.	4a/
2F\	.	2d\	2A/	1a
1E	.	1e	1B	.
.	.	.	.	2g#i/
=57	=57	=57	=57	=57
2AA/	2r	2c\	0A	2a/
2AA/	2E/	2c\	.	2a/
2D\	2F/	2d\	.	2.a/
2AA/	2E/	2c\	.	.
.	.	.	.	4g/
=58	=58	=58	=58	=58
2D\	2D/	2d\	0r	2f/
2AA/	2E/	2c\	.	2e/
1D	1F	1d	.	4d/
.	.	.	.	4e/
.	.	.	.	4f/
.	.	.	.	4d/
=59	=59	=59	=59	=59
2AA/	[0El	2c\	2r	[0el
2E\	.	2G/	2B\	.
2AA/	.	2A/	2c\	.
2E\	.	2G/	2B\	.
=60	=60	=60	=60	=60
2AA/	0E_	2c\	2A/	0e_
2GG/	.	2B\	2B\	.
1AA	.	1A	1c	.
=61	=61	=61	=61	=61
*^	*	*	*	*
0EE\l	0E/l	0E]	0Gl	0Bl	0e]
*v	*v	*	*	*	*
==	==	==	==	==
*-	*-	*-	*-	*-
!!!RDF**kern: l=long note in original notation
!!!RDF**kern: i=editorial accidental
!!!ENC: Will Watson 06/09/2011
!!!END: 2011/09/06/
!!!EED: Jesse Rodin
!!!EEV: 2011/10/07/
!!attribution-level@Jos: 3 (tricky)
!!!ONB: Translated from MusicXML and edited on 2011/10/07/ by Craig Sapp
!!muse2ps:  C^@{COA}?\n@{SCT}^i2I100v90,90,90,90,90,130Q16
